_images/mas.svg

<?xml version="1.0" standalone="no"?>
<!DOCTYPE svg PUBLIC "-//W3C//DTD SVG 1.1//EN"
        "http://www.w3.org/Graphics/SVG/1.1/DTD/svg11.dtd">

<svg version="1.1"
     xmlns="http://www.w3.org/2000/svg">

    <path fill="#fff" d="M6.79452055,8 L2,16.5 L4.01369863,18 L9,9.4 L6.79452055,8 Z M1.9,17 L4,18.5 L1,21 L1.9,17 Z M7,7.31578947 L9.48648649,9 L11,6.68421053 L8.40540541,5 L7,7.31578947 Z M9,4.66666667 L10.75,6 C10.75,6 11,5.42857143 11,5.04761905 C10.9166667,4.66666667 10.5,4.28571429 10.5,4.28571429 C10.5,4.28571429 10.0833333,4 9.75,4 C9.25,4 9,4.66666667 9,4.66666667 Z M0,11 L0,15 L1.6744186,15 L4,11 L0,11 Z M9.70833333,11 L7,15 L17,15 L14.3958333,11 L9.70833333,11 Z M18,11 L20.0833333,15 L23,15 L23,11 L18,11 Z M16.2401225,13 L18,12.0017006 C18,12.0017006 14.5837672,5.51275442 12.4098009,2.21836637 C10.7534456,-0.377212095 10.1323124,0.0221076686 10.1323124,0.0221076686 C10.1323124,0.0221076686 9.51117917,0.12193761 10.96049,3.11683584 C14.0661562,10.0051018 16.2401225,13 16.2401225,13 Z M18.6551724,13 L17,14.1428571 L18.5517241,17 L20,15.9714286 L18.6551724,13 Z M20.3991328,16 L19,16.86653 C19,16.86653 19.8994425,20.2243337 20.898823,21.6324449 C21.3985133,22.3906586 22.3978939,21.7407611 22.3978939,21.7407611 C22.3978939,21.7407611 23.2973364,21.0908636 22.8975841,20.2243337 C21.4984514,17.299795 20.3991328,16 20.3991328,16 Z"></path>
</svg>

<svg xmlns="http://www.w3.org/2000/svg"><path fill="#fff" d="M6.795 8L2 16.5 4.014 18 9 9.4 6.795 8zM1.9 17L4 18.5 1 21l.9-4zM7 7.316L9.486 9 11 6.684 8.405 5 7 7.316zm2-2.65L10.75 6s.25-.57.25-.952c-.083-.38-.5-.762-.5-.762S10.083 4 9.75 4c-.5 0-.75.667-.75.667zM0 11v4h1.674L4 11H0zm9.708 0L7 15h10l-2.604-4H9.708zM18 11l2.083 4H23v-4h-5zm-1.76 2l1.76-.998s-3.416-6.49-5.59-9.784C10.753-.377 10.132.022 10.132.022s-.62.1.828 3.095C14.066 10.005 16.24 13 16.24 13zm2.415 0L17 14.143 18.552 17 20 15.97 18.655 13zm1.744 3l-1.4.867s.9 3.357 1.9 4.765c.5.76 1.498.11 1.498.11s.9-.65.5-1.518c-1.4-2.924-2.5-4.224-2.5-4.224z"/></svg>
